preferences/32/preferences-system-network-remote.svg

<?xml version="1.0" encoding="UTF-8" standalone="no"?>
<!-- Created with Inkscape (http://www.inkscape.org/) -->

<svg
   width="32"
   height="32"
   version="1.1"
   viewBox="0 0 32 32"
   id="svg22"
   sodipodi:docname="preferences-system-network-remote.svg"
   inkscape:version="1.1.2 (0a00cf5339, 2022-02-04)"
   xmlns:inkscape="http://www.inkscape.org/namespaces/inkscape"
   xmlns:sodipodi="http://sodipodi.sourceforge.net/DTD/sodipodi-0.dtd"
   xmlns:xlink="http://www.w3.org/1999/xlink"
   xmlns="http://www.w3.org/2000/svg"
   xmlns:svg="http://www.w3.org/2000/svg">
  <sodipodi:namedview
     id="namedview24"
     pagecolor="#ffffff"
     bordercolor="#666666"
     borderopacity="1.0"
     inkscape:showpageshadow="2"
     inkscape:pageopacity="0.0"
     inkscape:pagecheckerboard="0"
     inkscape:deskcolor="#d1d1d1"
     showgrid="false"
     inkscape:zoom="25.62"
     inkscape:cx="11.202186"
     inkscape:cy="16.900859"
     inkscape:window-width="3440"
     inkscape:window-height="1356"
     inkscape:window-x="0"
     inkscape:window-y="0"
     inkscape:window-maximized="1"
     inkscape:current-layer="g888"
     inkscape:pageshadow="2" />
  <defs
     id="defs12">
    <linearGradient
       id="linearGradient1005-3-3"
       x1="5.2535"
       x2="9.3823996"
       y1="15.383"
       y2="2.9421"
       gradientTransform="matrix(0.99999,0,0,0.99999,1.632,-0.61743)"
       gradientUnits="userSpaceOnUse">
      <stop
         stop-color="#fa8200"
         offset="0"
         id="stop2" />
      <stop
         stop-color="#ff9600"
         offset=".36953"
         id="stop4" />
      <stop
         stop-color="#ffb400"
         offset="1"
         id="stop6" />
    </linearGradient>
    <filter
       id="filter4014"
       x="-0.062499933"
       y="-0.057692993"
       width="1.1249999"
       height="1.115386"
       color-interpolation-filters="sRGB">
      <feGaussianBlur
         stdDeviation="1.093751"
         id="feGaussianBlur9" />
    </filter>
    <linearGradient
       inkscape:collect="always"
       xlink:href="#linearGradient3487"
       id="linearGradient3403"
       gradientUnits="userSpaceOnUse"
       x1="6.9491749"
       y1="4.5549412"
       x2="11.215498"
       y2="59.052471" />
    <linearGradient
       id="linearGradient3487">
      <stop
         style="stop-color:#32373c;stop-opacity:1"
         offset="0"
         id="stop3481" />
      <stop
         id="stop3483"
         offset="0.36804965"
         style="stop-color:#1a1a1a;stop-opacity:1" />
      <stop
         style="stop-color:#31363b;stop-opacity:1"
         offset="1"
         id="stop3485" />
    </linearGradient>
    <linearGradient
       inkscape:collect="always"
       xlink:href="#linearGradient20604"
       id="linearGradient20558"
       gradientUnits="userSpaceOnUse"
       x1="25.802212"
       y1="20.373846"
       x2="25.111048"
       y2="58.912758" />
    <linearGradient
       id="linearGradient20604">
      <stop
         id="stop20598"
         offset="0"
         style="stop-color:#3d3d3d;stop-opacity:1" />
      <stop
         style="stop-color:#000000;stop-opacity:1"
         offset="0.61772454"
         id="stop20600" />
      <stop
         id="stop20602"
         offset="1"
         style="stop-color:#3d3d3d;stop-opacity:1" />
    </linearGradient>
    <filter
       inkscape:collect="always"
       style="color-interpolation-filters:sRGB"
       id="filter20720"
       x="-0.017024755"
       y="-0.016457183"
       width="1.0340491"
       height="1.0329144">
      <feGaussianBlur
         inkscape:collect="always"
         stdDeviation="0.14745661"
         id="feGaussianBlur20722" />
    </filter>
    <linearGradient
       gradientTransform="translate(0.36067797,-0.13016949)"
       xlink:href="#linearGradient4555"
       id="linearGradient4557"
       x1="43.499737"
       y1="64.011795"
       x2="44.141731"
       y2="0.30621234"
       gradientUnits="userSpaceOnUse" />
    <linearGradient
       id="linearGradient4555">
      <stop
         style="stop-color:#141618;stop-opacity:1"
         offset="0"
         id="stop4551" />
      <stop
         id="stop4559"
         offset="0.51820582"
         style="stop-color:#686868;stop-opacity:1" />
      <stop
         style="stop-color:#31363b;stop-opacity:1"
         offset="1"
         id="stop4553" />
    </linearGradient>
    <filter
       style="color-interpolation-filters:sRGB"
       id="filter4601"
       x="-0.030244762"
       width="1.0604895"
       y="-0.030100647"
       height="1.0602013">
      <feGaussianBlur
         stdDeviation="0.014790289"
         id="feGaussianBlur4603" />
    </filter>
    <linearGradient
       id="b"
       gradientTransform="matrix(0.66667,0,0,0.63518,-256.381,-317.279)"
       gradientUnits="userSpaceOnUse"
       x2="0"
       y1="543.79797"
       y2="502.655">
      <stop
         offset="0"
         stop-color="#c6cdd1"
         id="stop12" />
      <stop
         offset="1"
         stop-color="#e0e5e7"
         id="stop14" />
    </linearGradient>
    <linearGradient
       id="c"
       gradientUnits="userSpaceOnUse"
       x1="391.57101"
       x2="406.57101"
       xlink:href="#a"
       y1="525.79797"
       y2="540.79797"
       gradientTransform="translate(-384.571,-515.798)" />
    <linearGradient
       id="a">
      <stop
         offset="0"
         id="stop7" />
      <stop
         offset="1"
         stop-opacity="0"
         id="stop9" />
    </linearGradient>
    <linearGradient
       id="d"
       gradientUnits="userSpaceOnUse"
       x1="14.345257"
       x2="25.67017"
       xlink:href="#a"
       y1="16.075714"
       y2="25.263691"
       gradientTransform="matrix(1.1672274,0,0,1.0765571,-1.5050467,-0.9186854)" />
    <linearGradient
       inkscape:collect="always"
       xlink:href="#e"
       id="linearGradient864"
       gradientUnits="userSpaceOnUse"
       x1="8"
       y1="25"
       x2="8"
       y2="11"
       gradientTransform="matrix(1.1672274,0,0,1.0765571,-1.5050467,-0.9186854)" />
    <linearGradient
       id="e"
       gradientUnits="userSpaceOnUse"
       x1="8"
       x2="8"
       y1="25"
       y2="11">
      <stop
         offset="0"
         stop-color="#2e3436"
         id="stop2-8" />
      <stop
         offset="1"
         stop-color="#555753"
         id="stop4-8" />
    </linearGradient>
    <linearGradient
       inkscape:collect="always"
       xlink:href="#e"
       id="linearGradient131826"
       gradientUnits="userSpaceOnUse"
       x1="8"
       y1="25"
       x2="8"
       y2="11"
       gradientTransform="matrix(1.1672274,0,0,1.0765571,-1.5050467,-0.9186854)" />
  </defs>
  <g
     id="g888"
     transform="matrix(0.86146531,0,0,1,2.5107579,-0.10510009)">
    <path
       d="M 0,2 H 32 V 30 H 0 Z"
       fill="url(#b)"
       id="path19"
       style="fill:url(#b)" />
    <path
       d="M 1,28 31,8 32,9 V 30 H 3 Z"
       fill="url(#c)"
       fill-rule="evenodd"
       opacity="0.2"
       id="path21"
       style="fill:url(#c)" />
    <path
       d="M 0,2 H 32 V 6 H 0 Z"
       fill="#566069"
       id="path23" />
    <path
       d="M 0,6 H 32 V 7 H 0 Z"
       fill="#3daee9"
       id="path25" />
    <path
       d="M 1,8 H 31 V 28 H 1 Z"
       fill="#ffffff"
       id="path27" />
    <rect
       fill="#eff0f1"
       height="1.7007526"
       rx="1"
       width="2"
       x="29.000015"
       y="2.9999735"
       id="rect29"
       style="stroke-width:0.922159" />
    <path
       d="M 7.8327726,10.923443 H 26.508411 l 8.170592,7.5359 V 29.224914 H 14.836137 L 7.8327726,22.765571 Z"
       fill="url(#d)"
       opacity="0.2"
       id="path33"
       style="fill:url(#d);stroke-width:1.12098" />
    <path
       d="m 9,12 h 16.341184 v 9.689014 H 9 Z"
       fill="#fcfcfc"
       id="path35"
       sodipodi:nodetypes="ccccc" />
    <path
       d="m 17.170592,12 a 10.505047,9.6890141 0 0 0 -9.1942504,5.025369 c 0.1505723,0.391866 0.4167002,0.728829 0.7657012,0.977514 a 9.3378193,8.612457 0 0 1 8.4285492,-4.926326 4.6689097,4.3062285 0 0 0 -4.66891,4.306229 4.6689097,4.3062285 0 0 0 4.66891,4.306228 4.6689097,4.3062285 0 0 0 4.668909,-4.306228 4.6689097,4.3062285 0 0 0 -4.26038,-4.286851 9.3378193,8.612457 0 0 1 8.018853,4.906948 c 0.352502,-0.251915 0.622132,-0.592107 0.77037,-0.98828 A 10.505047,9.6890141 0 0 0 17.170592,12 Z m 0,2.153114 a 3.5016823,3.2296714 0 0 1 3.501682,3.229672 3.5016823,3.2296714 0 0 1 -3.501682,3.229671 3.5016823,3.2296714 0 0 1 -3.501682,-3.229671 3.5016823,3.2296714 0 0 1 3.501682,-3.229672 z m 0,1.076557 a 2.3344548,2.1531142 0 0 0 -2.334455,2.153115 2.3344548,2.1531142 0 0 0 2.334455,2.153114 2.3344548,2.1531142 0 0 0 2.334455,-2.153114 2.3344548,2.1531142 0 0 0 -0.105051,-0.633016 1.1672274,1.0765571 0 0 1 -1.062177,0.633016 1.1672274,1.0765571 0 0 1 -1.167227,-1.076557 1.1672274,1.0765571 0 0 1 0.688664,-0.979667 2.3344548,2.1531142 0 0 0 -0.688664,-0.09689 z"
       id="path37"
       style="fill:url(#linearGradient131826);stroke-width:1.12098" />
    <path
       d="m 7.8327726,10.923443 v 11.842128 h 8.1705914 v 2.153115 h -3.501682 v 1.076557 h 9.337819 v -1.076557 h -3.501682 v -2.153115 h 8.170592 V 10.923443 H 9 Z M 9,12 h 16.341184 v 9.689014 H 9 Z"
       id="path39"
       style="fill:url(#linearGradient864);stroke-width:1.12098" />
  </g>
  <path
     style="display:inline;mix-blend-mode:normal;fill:url(#linearGradient3403);fill-opacity:1;stroke:url(#linearGradient20558);stroke-width:1.16242;stroke-linecap:butt;stroke-linejoin:round;stroke-miterlimit:4;stroke-dasharray:none;stroke-opacity:1;filter:url(#filter20720)"
     d="M 4.7043071,3.9814882 4.6913695,60.80196 H 58.59546 l 1.022155,-2.866369 c 0,0 -23.87537,0.766388 -32.844441,-4.140386 C 16.257548,48.042344 11.401114,4.0978197 11.401114,4.0978197 Z"
     id="path1686"
     sodipodi:nodetypes="ccccscc"
     transform="matrix(0.49530655,0,0,0.49530655,0.32409325,0.23228439)"
     inkscape:label="folder" />
  <rect
     style="display:inline;fill:none;fill-opacity:1;stroke:url(#linearGradient4557);stroke-width:3.71366;stroke-linejoin:round;stroke-miterlimit:7.8;stroke-dasharray:none;stroke-opacity:0.995146;filter:url(#filter4601)"
     id="rect4539"
     width="62.567089"
     height="62.866646"
     x="1.0323594"
     y="0.59551275"
     ry="6.2447233"
     rx="5.8029528"
     transform="matrix(0.46399463,0,0,0.4630489,1.1562887,1.2331482)"
     inkscape:label="contour" />
</svg>

<svg width="32" height="32" version="1.1" viewBox="0 0 32 32" xmlns="http://www.w3.org/2000/svg" xmlns:xlink="http://www.w3.org/1999/xlink">
<defs>
<linearGradient id="linearGradient3403" x1="6.9492" x2="11.215" y1="4.5549" y2="59.052" gradientUnits="userSpaceOnUse">
<stop style="stop-color:#32373c" offset="0"/>
<stop style="stop-color:#1a1a1a" offset=".36805"/>
<stop style="stop-color:#31363b" offset="1"/>
</linearGradient>
<linearGradient id="linearGradient20558" x1="25.802" x2="25.111" y1="20.374" y2="58.913" gradientUnits="userSpaceOnUse">
<stop style="stop-color:#3d3d3d" offset="0"/>
<stop offset=".61772"/>
<stop style="stop-color:#3d3d3d" offset="1"/>
</linearGradient>
<linearGradient id="linearGradient4557" x1="43.5" x2="44.142" y1="64.012" y2=".30621" gradientTransform="translate(.36068 -.13017)" gradientUnits="userSpaceOnUse">
<stop style="stop-color:#141618" offset="0"/>
<stop style="stop-color:#686868" offset=".51821"/>
<stop style="stop-color:#31363b" offset="1"/>
</linearGradient>
<linearGradient id="b" x2="0" y1="543.8" y2="502.66" gradientTransform="matrix(.66667 0 0 .63518 -256.38 -317.28)" gradientUnits="userSpaceOnUse">
<stop stop-color="#c6cdd1" offset="0"/>
<stop stop-color="#e0e5e7" offset="1"/>
</linearGradient>
<linearGradient id="c" x1="391.57" x2="406.57" y1="525.8" y2="540.8" gradientTransform="translate(-384.57 -515.8)" gradientUnits="userSpaceOnUse" xlink:href="#a"/>
<linearGradient id="a">
<stop offset="0"/>
<stop stop-opacity="0" offset="1"/>
</linearGradient>
<linearGradient id="d" x1="14.345" x2="25.67" y1="16.076" y2="25.264" gradientTransform="matrix(1.1672 0 0 1.0766 -1.505 -.91869)" gradientUnits="userSpaceOnUse" xlink:href="#a"/>
<linearGradient id="linearGradient864" x1="8" x2="8" y1="25" y2="11" gradientTransform="matrix(1.1672 0 0 1.0766 -1.505 -.91869)" gradientUnits="userSpaceOnUse" xlink:href="#e"/>
<linearGradient id="e" x1="8" x2="8" y1="25" y2="11" gradientUnits="userSpaceOnUse">
<stop stop-color="#2e3436" offset="0"/>
<stop stop-color="#555753" offset="1"/>
</linearGradient>
</defs>
<g transform="matrix(.86147 0 0 1 2.5108 -.1051)">
<path d="m0 2h32v28h-32z" fill="url(#b)" style="fill:url(#b)"/>
<path d="m1 28 30-20 1 1v21h-29z" fill="url(#c)" fill-rule="evenodd" opacity=".2" style="fill:url(#c)"/>
<path d="m0 2h32v4h-32z" fill="#566069"/>
<path d="m0 6h32v1h-32z" fill="#3daee9"/>
<path d="m1 8h30v20h-30z" fill="#fff"/>
<rect x="29" y="3" width="2" height="1.7008" rx="1" fill="#eff0f1" style="stroke-width:.92216"/>
<path d="m7.8328 10.923h18.676l8.1706 7.5359v10.766h-19.843l-7.0034-6.4593z" fill="url(#d)" opacity=".2" style="fill:url(#d);stroke-width:1.121"/>
<path d="m9 12h16.341v9.689h-16.341z" fill="#fcfcfc"/>
<path d="m17.171 12a10.505 9.689 0 0 0-9.1943 5.0254c0.15057 0.39187 0.4167 0.72883 0.7657 0.97751a9.3378 8.6125 0 0 1 8.4285-4.9263 4.6689 4.3062 0 0 0-4.6689 4.3062 4.6689 4.3062 0 0 0 4.6689 4.3062 4.6689 4.3062 0 0 0 4.6689-4.3062 4.6689 4.3062 0 0 0-4.2604-4.2869 9.3378 8.6125 0 0 1 8.0189 4.9069c0.3525-0.25192 0.62213-0.59211 0.77037-0.98828a10.505 9.689 0 0 0-9.1978-5.0146zm0 2.1531a3.5017 3.2297 0 0 1 3.5017 3.2297 3.5017 3.2297 0 0 1-3.5017 3.2297 3.5017 3.2297 0 0 1-3.5017-3.2297 3.5017 3.2297 0 0 1 3.5017-3.2297zm0 1.0766a2.3345 2.1531 0 0 0-2.3345 2.1531 2.3345 2.1531 0 0 0 2.3345 2.1531 2.3345 2.1531 0 0 0 2.3345-2.1531 2.3345 2.1531 0 0 0-0.10505-0.63302 1.1672 1.0766 0 0 1-1.0622 0.63302 1.1672 1.0766 0 0 1-1.1672-1.0766 1.1672 1.0766 0 0 1 0.68866-0.97967 2.3345 2.1531 0 0 0-0.68866-0.09689z" style="fill:url(#linearGradient864);stroke-width:1.121"/>
<path d="m7.8328 10.923v11.842h8.1706v2.1531h-3.5017v1.0766h9.3378v-1.0766h-3.5017v-2.1531h8.1706v-11.842h-17.508zm1.1672 1.0766h16.341v9.689h-16.341z" style="fill:url(#linearGradient864);stroke-width:1.121"/>
</g>
<path transform="matrix(.49531 0 0 .49531 .32409 .23228)" d="m4.7043 3.9815-0.012938 56.82h53.904l1.0222-2.8664s-23.875 0.76639-32.844-4.1404c-10.516-5.7529-15.372-49.697-15.372-49.697z" style="fill:url(#linearGradient3403);mix-blend-mode:normal;stroke-linejoin:round;stroke-width:1.1624;stroke:url(#linearGradient20558)"/>
<rect transform="matrix(.46399 0 0 .46305 1.1563 1.2331)" x="1.0324" y=".59551" width="62.567" height="62.867" rx="5.803" ry="6.2447" style="fill:none;stroke-linejoin:round;stroke-miterlimit:7.8;stroke-opacity:.99515;stroke-width:3.7137;stroke:url(#linearGradient4557)"/>
</svg>
